symbols/web/nature_people/materialsymbolssharp/nature_people_wght300grad200_20px.svg

<svg xmlns="http://www.w3.org/2000/svg" height="20" width="20"><path d="M3.375 9.312q-.542 0-.958-.416Q2 8.479 2 7.938q0-.521.417-.938.416-.417.937-.417.542 0 .958.417.417.417.417.938 0 .541-.417.958-.416.416-.937.416Zm-1.271 9.396v-4.312h-.896v-4.313H5.5v4.313h-.875v2.437h7.292v-4.187h-1.334q-1.541 0-2.625-1.063-1.083-1.062-1.083-2.562 0-1.042.521-2.011.521-.968 1.583-1.427.271-1.479 1.396-2.343 1.125-.865 2.458-.865 1.334 0 2.448.865 1.115.864 1.386 2.343 1.041.459 1.583 1.427.542.969.542 2.011 0 1.5-1.094 2.562-1.094 1.063-2.615 1.063h-1.291v4.187h4.083v1.875Zm8.479-7.937h4.479q.75 0 1.303-.511.552-.51.552-1.239 0-.646-.396-1.136-.396-.489-.979-.718l-.604-.229-.105-.626q-.104-.937-.645-1.5-.542-.562-1.355-.562-.833 0-1.395.562-.563.563-.667 1.5l-.083.626-.584.229q-.604.25-.979.729T8.75 9.021q0 .729.542 1.239.541.511 1.291.511Zm2.25-3.271Z"/></svg>

<svg xmlns="http://www.w3.org/2000/svg" height="20" width="20"><path d="M3.375 9.312Q2.833 9.312 2.417 8.896Q2 8.479 2 7.938Q2 7.417 2.417 7Q2.833 6.583 3.354 6.583Q3.896 6.583 4.312 7Q4.729 7.417 4.729 7.938Q4.729 8.479 4.312 8.896Q3.896 9.312 3.375 9.312ZM2.104 18.708V14.396H1.208V10.083H5.5V14.396H4.625V16.833H11.917V12.646H10.583Q9.042 12.646 7.958 11.583Q6.875 10.521 6.875 9.021Q6.875 7.979 7.396 7.01Q7.917 6.042 8.979 5.583Q9.25 4.104 10.375 3.24Q11.5 2.375 12.833 2.375Q14.167 2.375 15.281 3.24Q16.396 4.104 16.667 5.583Q17.708 6.042 18.25 7.01Q18.792 7.979 18.792 9.021Q18.792 10.521 17.698 11.583Q16.604 12.646 15.083 12.646H13.792V16.833H17.875V18.708ZM10.583 10.771H15.062Q15.812 10.771 16.365 10.26Q16.917 9.75 16.917 9.021Q16.917 8.375 16.521 7.885Q16.125 7.396 15.542 7.167L14.938 6.938L14.833 6.312Q14.729 5.375 14.188 4.812Q13.646 4.25 12.833 4.25Q12 4.25 11.438 4.812Q10.875 5.375 10.771 6.312L10.688 6.938L10.104 7.167Q9.5 7.417 9.125 7.896Q8.75 8.375 8.75 9.021Q8.75 9.75 9.292 10.26Q9.833 10.771 10.583 10.771ZM12.833 7.5Q12.833 7.5 12.833 7.5Q12.833 7.5 12.833 7.5Q12.833 7.5 12.833 7.5Q12.833 7.5 12.833 7.5Q12.833 7.5 12.833 7.5Q12.833 7.5 12.833 7.5Q12.833 7.5 12.833 7.5Q12.833 7.5 12.833 7.5Q12.833 7.5 12.833 7.5Q12.833 7.5 12.833 7.5Q12.833 7.5 12.833 7.5Q12.833 7.5 12.833 7.5Z"/></svg>
